X:905
T:Auld Lang Syne
S:G.Wade NLS MS 21769 dated 7/3/1828
M:2/4
L:1/8
Q:1/4=90
K:C
[V:1] G|c>c c>e|{e}d>c d<e|c>c e>g|a3c' |g<e e<c|{e}d>c d<e|c<A A>G|c2 zG|
[V:2] G|E>E E>G|   F>E F>G|E2  c>e|f2 FA|E<G G<E|   F>E F>G|A<F F>E|E2 zG|
%
[V:1]    c>c     c>e |{e}d>c     d<e |  c>c   e>g|  a>b {d'}c'b/a/|g>e {f}ed/c/|{e}d>c d3/e//d//|c<A {B}A>G|{G}c2 z||
[V:2] (3(EGc) (3(EGc)|(3(FGB) (3(FGB)|(3EGc (3EGc|(3FAc     F z   |E>G  (3GFE  |   F>E Fz       |A<F    F>E|   E2 z||
%
[V:1] a|g<e e<c|{e}d>c da|g<e e<g|a3c'|g<e e<c|{e}d>c de/d/|c<A {B}A>G|c2 z|]
[V:2] F|E<G G<E|   F>E F2|e<c c<e|fcAF|E<G G<E|   F>E FG   |A<F    F>E|E2 z|]

